public/coins/aUSDT.svg

<svg height="256" viewBox="0 0 256 256" width="256" xmlns="http://www.w3.org/2000/svg" xmlns:xlink="http://www.w3.org/1999/xlink"><linearGradient id="a" gradientUnits="objectBoundingBox" x1=".843" x2=".206" y1=".135" y2=".886"><stop offset="0" stop-color="#b6509e"/><stop offset="1" stop-color="#2ebac6"/></linearGradient><clipPath id="b"><path d="m0 0h256v256h-256z"/></clipPath><g clip-path="url(#b)"><path d="m128 256a128.976 128.976 0 0 1 -25.8-2.6 127.309 127.309 0 0 1 -45.77-19.261 128.366 128.366 0 0 1 -46.375-56.315 127.357 127.357 0 0 1 -7.455-24.024 129.251 129.251 0 0 1 0-51.593 127.31 127.31 0 0 1 19.26-45.77 128.372 128.372 0 0 1 56.317-46.378 127.33 127.33 0 0 1 24.023-7.459 129.244 129.244 0 0 1 51.593 0 127.308 127.308 0 0 1 45.77 19.26 128.367 128.367 0 0 1 46.375 56.316 127.343 127.343 0 0 1 7.462 24.024 129.248 129.248 0 0 1 0 51.593 127.3 127.3 0 0 1 -19.26 45.77 128.382 128.382 0 0 1 -56.316 46.375 127.4 127.4 0 0 1 -24.024 7.462 128.977 128.977 0 0 1 -25.8 2.6zm0-242.287a115.145 115.145 0 0 0 -23.033 2.322 113.657 113.657 0 0 0 -40.867 17.197 114.622 114.622 0 0 0 -41.4 50.283 113.7 113.7 0 0 0 -6.659 21.452 115.4 115.4 0 0 0 0 46.065 113.66 113.66 0 0 0 17.2 40.866 114.627 114.627 0 0 0 50.282 41.407 113.75 113.75 0 0 0 21.453 6.658 115.381 115.381 0 0 0 46.065 0 113.609 113.609 0 0 0 40.866-17.2 114.622 114.622 0 0 0 41.393-50.278 113.741 113.741 0 0 0 6.659-21.453 115.4 115.4 0 0 0 0-46.065 113.662 113.662 0 0 0 -17.2-40.865 114.619 114.619 0 0 0 -50.274-41.402 113.74 113.74 0 0 0 -21.453-6.659 115.145 115.145 0 0 0 -23.032-2.327z" fill="url(#a)"/><g transform="translate(29.714 29.714)"><path d="m98.285 0a98.285 98.285 0 1 1 -98.285 98.285 98.288 98.288 0 0 1 98.285-98.285" fill="#53ae94"/><path d="m464.88 528.238v-14.621h33.435v-22.277h-91.044v22.277h33.439v14.609c-27.176 1.248-47.609 6.63-47.609 13.078s20.443 11.83 47.609 13.086v46.833h24.178v-46.837c27.127-1.252 47.519-6.63 47.519-13.072s-20.392-11.82-47.519-13.072m0 22.177v-.012c-.682.043-4.187.254-11.991.254-6.239 0-10.629-.177-12.176-.258v.02c-24.009-1.063-41.93-5.245-41.93-10.247s17.923-9.178 41.93-10.243v16.325c1.573.108 6.07.373 12.278.373 7.456 0 11.2-.311 11.893-.373v-16.325c23.962 1.067 41.842 5.252 41.842 10.237s-17.888 9.172-41.842 10.239" fill="#fff" transform="translate(-354.464 -443.048)"/></g></g></svg>

<svg xmlns="http://www.w3.org/2000/svg" xmlns:xlink="http://www.w3.org/1999/xlink" width="256" height="256" viewBox="0 0 256 256"><defs><linearGradient id="a" x1="0.843" y1="0.135" x2="0.206" y2="0.886" gradientUnits="objectBoundingBox"><stop offset="0" stop-color="#b6509e"/><stop offset="1" stop-color="#2ebac6"/></linearGradient><clipPath id="c"><rect width="256" height="256"/></clipPath></defs><g id="b" clip-path="url(#c)"><g transform="translate(-20 -20)"><path d="M128,256a128.976,128.976,0,0,1-25.8-2.6,127.309,127.309,0,0,1-45.77-19.261,128.366,128.366,0,0,1-46.375-56.315A127.357,127.357,0,0,1,2.6,153.8a129.251,129.251,0,0,1,0-51.593,127.31,127.31,0,0,1,19.26-45.77A128.372,128.372,0,0,1,78.177,10.059,127.33,127.33,0,0,1,102.2,2.6a129.244,129.244,0,0,1,51.593,0,127.308,127.308,0,0,1,45.77,19.26,128.367,128.367,0,0,1,46.375,56.316A127.343,127.343,0,0,1,253.4,102.2a129.248,129.248,0,0,1,0,51.593,127.3,127.3,0,0,1-19.26,45.77,128.382,128.382,0,0,1-56.316,46.375A127.4,127.4,0,0,1,153.8,253.4,128.977,128.977,0,0,1,128,256Zm0-242.287a115.145,115.145,0,0,0-23.033,2.322A113.657,113.657,0,0,0,64.1,33.232,114.622,114.622,0,0,0,22.7,83.515a113.7,113.7,0,0,0-6.659,21.452,115.4,115.4,0,0,0,0,46.065,113.66,113.66,0,0,0,17.2,40.866,114.627,114.627,0,0,0,50.282,41.407,113.75,113.75,0,0,0,21.453,6.658,115.381,115.381,0,0,0,46.065,0,113.609,113.609,0,0,0,40.866-17.2A114.622,114.622,0,0,0,233.3,172.485a113.741,113.741,0,0,0,6.659-21.453,115.4,115.4,0,0,0,0-46.065,113.662,113.662,0,0,0-17.2-40.865A114.619,114.619,0,0,0,172.485,22.7a113.74,113.74,0,0,0-21.453-6.659A115.145,115.145,0,0,0,128,13.714Z" transform="translate(20 20)" fill="url(#a)"/><g transform="translate(49.714 49.714)"><path d="M98.285,0A98.285,98.285,0,1,1,0,98.285,98.288,98.288,0,0,1,98.285,0" fill="#53ae94"/><path d="M464.88,528.238V513.617h33.435V491.34H407.271v22.277h33.439v14.609c-27.176,1.248-47.609,6.63-47.609,13.078s20.443,11.83,47.609,13.086v46.833h24.178V554.386c27.127-1.252,47.519-6.63,47.519-13.072s-20.392-11.82-47.519-13.072m0,22.177v-.012c-.682.043-4.187.254-11.991.254-6.239,0-10.629-.177-12.176-.258v.02c-24.009-1.063-41.93-5.245-41.93-10.247s17.923-9.178,41.93-10.243v16.325c1.573.108,6.07.373,12.278.373,7.456,0,11.2-.311,11.893-.373V529.933c23.962,1.067,41.842,5.252,41.842,10.237s-17.888,9.172-41.842,10.239" transform="translate(-354.464 -443.048)" fill="#fff"/></g></g></g></svg>
